images/cards/vector-3.svg

<svg width="55" height="55" viewBox="0 0 55 55" fill="none" xmlns="http://www.w3.org/2000/svg">
<path d="M52.9165 32.2116C53.0685 32.3636 53.2747 32.449 53.4897 32.449C53.7047 32.449 53.9109 32.3636 54.063 32.2116C54.215 32.0595 54.3004 31.8533 54.3004 31.6383V29.379C54.3004 29.164 54.215 28.9578 54.063 28.8057C53.9109 28.6537 53.7047 28.5683 53.4897 28.5683C53.2747 28.5683 53.0685 28.6537 52.9165 28.8057C52.7644 28.9578 52.679 29.164 52.679 29.379V31.6383C52.679 31.8533 52.7644 32.0595 52.9165 32.2116Z" fill="#CB8734" stroke="#CB8734" stroke-width="0.1"/>
<path d="M4.04286 54.175H51.2071C52.0274 54.175 52.8141 53.8491 53.3941 53.2691C53.9741 52.6891 54.3 51.9024 54.3 51.0821V36.9633C54.3 36.7483 54.2146 36.5421 54.0625 36.39C53.9105 36.238 53.7043 36.1526 53.4893 36.1526C53.2743 36.1526 53.0681 36.238 52.916 36.39C52.764 36.5421 52.6786 36.7483 52.6786 36.9633V51.0821C52.6786 51.4724 52.5235 51.8467 52.2476 52.1226C51.9717 52.3985 51.5974 52.5536 51.2071 52.5536H4.04286C3.65261 52.5536 3.27835 52.3985 3.0024 52.1226C2.72645 51.8467 2.57143 51.4724 2.57143 51.0821V3.91786C2.57143 3.52761 2.72645 3.15335 3.0024 2.8774C3.27835 2.60145 3.65261 2.44643 4.04286 2.44643H51.2071C51.5974 2.44643 51.9717 2.60145 52.2476 2.8774C52.5235 3.15335 52.6786 3.52761 52.6786 3.91786V16.5153C52.6786 16.7303 52.764 16.9365 52.916 17.0885C53.0681 17.2406 53.2743 17.326 53.4893 17.326C53.7043 17.326 53.9105 17.2406 54.0625 17.0885C54.2146 16.9365 54.3 16.7303 54.3 16.5153V3.91786C54.3 3.09758 53.9741 2.3109 53.3941 1.73088C52.8141 1.15085 52.0274 0.825 51.2071 0.825H4.04286C3.22258 0.825 2.4359 1.15085 1.85588 1.73088C1.27585 2.3109 0.95 3.09758 0.95 3.91786V51.0821C0.95 51.9024 1.27585 52.6891 1.85588 53.2691C2.4359 53.8491 3.22258 54.175 4.04286 54.175Z" fill="#CB8734" stroke="#CB8734" stroke-width="0.1"/>
<path d="M52.9165 24.6274C53.0685 24.7794 53.2747 24.8648 53.4897 24.8648C53.7047 24.8648 53.9109 24.7794 54.063 24.6274C54.215 24.4753 54.3004 24.2691 54.3004 24.0541V21.8404C54.3004 21.6254 54.215 21.4192 54.063 21.2672C53.9109 21.1151 53.7047 21.0297 53.4897 21.0297C53.2747 21.0297 53.0685 21.1151 52.9165 21.2672C52.7644 21.4192 52.679 21.6254 52.679 21.8404V24.0541C52.679 24.2691 52.7644 24.4753 52.9165 24.6274Z" fill="#CB8734" stroke="#CB8734" stroke-width="0.1"/>
<mask id="path-4-outside-1_162_2884" maskUnits="userSpaceOnUse" x="28.429" y="8.27191" width="24.0416" height="24.0416" fill="black">
<rect fill="white" x="28.429" y="8.27191" width="24.0416" height="24.0416"/>
<path fill-rule="evenodd" clip-rule="evenodd" d="M45.3688 16.5689C45.5706 16.5689 45.7641 16.4888 45.9067 16.3461C46.0494 16.2035 46.1295 16.01 46.1295 15.8082C46.1295 15.6065 46.0494 15.413 45.9067 15.2703L40.9241 10.2877C40.7814 10.145 40.5879 10.0649 40.3862 10.0649C40.1844 10.0649 39.9909 10.145 39.8483 10.2877L34.8657 15.2703C34.723 15.413 34.6429 15.6065 34.6429 15.8082C34.6429 16.01 34.723 16.2035 34.8657 16.3461C35.0083 16.4888 35.2018 16.5689 35.4036 16.5689C35.6053 16.5689 35.7988 16.4888 35.9415 16.3461L39.6258 12.6618L39.6258 29.7603C39.6258 29.9107 39.6705 30.0578 39.754 30.1828C39.8376 30.3079 39.9564 30.4054 40.0954 30.463C40.2344 30.5205 40.3873 30.5356 40.5348 30.5063C40.6824 30.477 40.8179 30.4045 40.9243 30.2982C41.0669 30.1555 41.147 29.962 41.147 29.7603L41.147 12.6622L44.8309 16.3461C44.9736 16.4888 45.1671 16.5689 45.3688 16.5689Z"/>
</mask>
<path fill-rule="evenodd" clip-rule="evenodd" d="M45.3688 16.5689C45.5706 16.5689 45.7641 16.4888 45.9067 16.3461C46.0494 16.2035 46.1295 16.01 46.1295 15.8082C46.1295 15.6065 46.0494 15.413 45.9067 15.2703L40.9241 10.2877C40.7814 10.145 40.5879 10.0649 40.3862 10.0649C40.1844 10.0649 39.9909 10.145 39.8483 10.2877L34.8657 15.2703C34.723 15.413 34.6429 15.6065 34.6429 15.8082C34.6429 16.01 34.723 16.2035 34.8657 16.3461C35.0083 16.4888 35.2018 16.5689 35.4036 16.5689C35.6053 16.5689 35.7988 16.4888 35.9415 16.3461L39.6258 12.6618L39.6258 29.7603C39.6258 29.9107 39.6705 30.0578 39.754 30.1828C39.8376 30.3079 39.9564 30.4054 40.0954 30.463C40.2344 30.5205 40.3873 30.5356 40.5348 30.5063C40.6824 30.477 40.8179 30.4045 40.9243 30.2982C41.0669 30.1555 41.147 29.962 41.147 29.7603L41.147 12.6622L44.8309 16.3461C44.9736 16.4888 45.1671 16.5689 45.3688 16.5689Z" fill="#CB8734"/>
<path d="M40.3862 10.0649L40.3862 9.96489L40.3862 9.96489L40.3862 10.0649ZM34.6429 15.8082L34.5429 15.8082L34.6429 15.8082ZM35.4036 16.5689V16.4689V16.5689ZM39.6258 12.6618L39.7258 12.6618L39.7258 12.4204L39.5551 12.5911L39.6258 12.6618ZM39.6258 29.7603L39.5258 29.7603L39.5258 29.7603L39.6258 29.7603ZM39.754 30.1828L39.6709 30.2384L39.6709 30.2384L39.754 30.1828ZM40.0954 30.463L40.0571 30.5554L40.0571 30.5554L40.0954 30.463ZM40.5348 30.5063L40.5543 30.6044L40.5348 30.5063ZM40.9243 30.2982L40.995 30.3689L40.995 30.3689L40.9243 30.2982ZM41.147 29.7603L41.047 29.7603L41.047 29.7603L41.147 29.7603ZM41.147 12.6622L41.2177 12.5915L41.047 12.4208L41.047 12.6622L41.147 12.6622ZM45.836 16.2754C45.7121 16.3993 45.544 16.4689 45.3688 16.4689V16.6689C45.5971 16.6689 45.816 16.5783 45.9774 16.4168L45.836 16.2754ZM46.0295 15.8082C46.0295 15.9835 45.9599 16.1515 45.836 16.2754L45.9774 16.4168C46.1388 16.2554 46.2295 16.0365 46.2295 15.8082H46.0295ZM45.836 15.341C45.9599 15.4649 46.0295 15.633 46.0295 15.8082H46.2295C46.2295 15.58 46.1388 15.361 45.9774 15.1996L45.836 15.341ZM40.8534 10.3584L45.836 15.341L45.9774 15.1996L40.9948 10.217L40.8534 10.3584ZM40.3862 10.1649C40.5614 10.1649 40.7295 10.2345 40.8534 10.3584L40.9948 10.217C40.8334 10.0556 40.6145 9.96489 40.3862 9.96489L40.3862 10.1649ZM39.919 10.3584C40.0429 10.2345 40.211 10.1649 40.3862 10.1649L40.3862 9.96489C40.1579 9.96489 39.939 10.0556 39.7776 10.217L39.919 10.3584ZM34.9364 15.341L39.919 10.3584L39.7776 10.217L34.7949 15.1996L34.9364 15.341ZM34.7429 15.8082C34.7429 15.633 34.8125 15.4649 34.9364 15.341L34.7949 15.1996C34.6335 15.361 34.5429 15.58 34.5429 15.8082L34.7429 15.8082ZM34.9364 16.2754C34.8125 16.1515 34.7429 15.9835 34.7429 15.8082L34.5429 15.8082C34.5429 16.0365 34.6335 16.2554 34.7949 16.4169L34.9364 16.2754ZM35.4036 16.4689C35.2283 16.4689 35.0603 16.3993 34.9364 16.2754L34.7949 16.4169C34.9564 16.5783 35.1753 16.6689 35.4036 16.6689V16.4689ZM35.8708 16.2754C35.7469 16.3993 35.5788 16.4689 35.4036 16.4689V16.6689C35.6318 16.6689 35.8508 16.5783 36.0122 16.4169L35.8708 16.2754ZM39.5551 12.5911L35.8708 16.2754L36.0122 16.4169L39.6965 12.7325L39.5551 12.5911ZM39.7258 29.7603L39.7258 12.6618L39.5258 12.6618L39.5258 29.7603L39.7258 29.7603ZM39.8372 30.1273C39.7646 30.0186 39.7258 29.8909 39.7258 29.7603L39.5258 29.7603C39.5258 29.9305 39.5763 30.0969 39.6709 30.2384L39.8372 30.1273ZM40.1337 30.3706C40.0129 30.3206 39.9098 30.2359 39.8372 30.1273L39.6709 30.2384C39.7655 30.3799 39.8999 30.4902 40.0571 30.5554L40.1337 30.3706ZM40.5153 30.4082C40.3872 30.4337 40.2544 30.4206 40.1337 30.3706L40.0571 30.5554C40.2144 30.6205 40.3874 30.6376 40.5543 30.6044L40.5153 30.4082ZM40.8536 30.2275C40.7612 30.3198 40.6435 30.3827 40.5153 30.4082L40.5543 30.6044C40.7213 30.5712 40.8746 30.4892 40.995 30.3689L40.8536 30.2275ZM41.047 29.7603C41.047 29.9355 40.9775 30.1036 40.8536 30.2275L40.995 30.3689C41.1564 30.2074 41.247 29.9885 41.247 29.7603L41.047 29.7603ZM41.047 12.6622L41.047 29.7603L41.247 29.7603L41.247 12.6622L41.047 12.6622ZM44.9016 16.2754L41.2177 12.5915L41.0763 12.7329L44.7602 16.4169L44.9016 16.2754ZM45.3688 16.4689C45.1936 16.4689 45.0255 16.3993 44.9016 16.2754L44.7602 16.4169C44.9216 16.5783 45.1405 16.6689 45.3688 16.6689V16.4689Z" fill="#CB8734" mask="url(#path-4-outside-1_162_2884)"/>
<mask id="path-6-outside-2_162_2884" maskUnits="userSpaceOnUse" x="7.77704" y="28.3045" width="24.0416" height="24.0416" fill="black">
<rect fill="white" x="7.77704" y="28.3045" width="24.0416" height="24.0416"/>
<path fill-rule="evenodd" clip-rule="evenodd" d="M9.59118 40.4034C9.62051 40.5509 9.69292 40.6865 9.79927 40.7929C9.80249 40.7961 9.80573 40.7993 9.809 40.8024L14.7821 45.7755C14.9248 45.9182 15.1183 45.9984 15.32 45.9984C15.5218 45.9984 15.7153 45.9182 15.8579 45.7755C16.0006 45.6329 16.0807 45.4394 16.0807 45.2376C16.0807 45.0359 16.0006 44.8424 15.8579 44.6997L12.1738 41.0156L29.2715 41.0156C29.4709 41.0121 29.661 40.9304 29.8008 40.7882C29.9406 40.6459 30.019 40.4544 30.019 40.255C30.019 40.0555 29.9406 39.864 29.8008 39.7218C29.661 39.5795 29.4709 39.4978 29.2715 39.4944L12.1739 39.4944L15.8579 35.8103C15.9286 35.7397 15.9846 35.6558 16.0228 35.5635C16.0611 35.4712 16.0807 35.3723 16.0807 35.2724C16.0807 35.1725 16.0611 35.0736 16.0228 34.9813C15.9846 34.889 15.9286 34.8051 15.8579 34.7345C15.7873 34.6638 15.7034 34.6078 15.6111 34.5696C15.5188 34.5314 15.4199 34.5117 15.32 34.5117C15.2201 34.5117 15.1212 34.5314 15.0289 34.5696C14.9366 34.6078 14.8528 34.6638 14.7821 34.7345L9.80416 39.7124"/>
</mask>
<path fill-rule="evenodd" clip-rule="evenodd" d="M9.59118 40.4034C9.62051 40.5509 9.69292 40.6865 9.79927 40.7929C9.80249 40.7961 9.80573 40.7993 9.809 40.8024L14.7821 45.7755C14.9248 45.9182 15.1183 45.9984 15.32 45.9984C15.5218 45.9984 15.7153 45.9182 15.8579 45.7755C16.0006 45.6329 16.0807 45.4394 16.0807 45.2376C16.0807 45.0359 16.0006 44.8424 15.8579 44.6997L12.1738 41.0156L29.2715 41.0156C29.4709 41.0121 29.661 40.9304 29.8008 40.7882C29.9406 40.6459 30.019 40.4544 30.019 40.255C30.019 40.0555 29.9406 39.864 29.8008 39.7218C29.661 39.5795 29.4709 39.4978 29.2715 39.4944L12.1739 39.4944L15.8579 35.8103C15.9286 35.7397 15.9846 35.6558 16.0228 35.5635C16.0611 35.4712 16.0807 35.3723 16.0807 35.2724C16.0807 35.1725 16.0611 35.0736 16.0228 34.9813C15.9846 34.889 15.9286 34.8051 15.8579 34.7345C15.7873 34.6638 15.7034 34.6078 15.6111 34.5696C15.5188 34.5314 15.4199 34.5117 15.32 34.5117C15.2201 34.5117 15.1212 34.5314 15.0289 34.5696C14.9366 34.6078 14.8528 34.6638 14.7821 34.7345L9.80416 39.7124" fill="#CB8734"/>
<path d="M9.75638 39.6977L9.5434 40.3887L9.63896 40.4181L9.85194 39.7272L9.75638 39.6977ZM9.79927 40.7929L9.72854 40.8636L9.72856 40.8636L9.79927 40.7929ZM9.809 40.8024L9.87972 40.7317L9.87842 40.7304L9.809 40.8024ZM14.7821 45.7755L14.8528 45.7048L14.7821 45.7755ZM12.1738 41.0156L12.1738 40.9156L11.9323 40.9156L12.1031 41.0863L12.1738 41.0156ZM29.2715 41.0156L29.2715 41.1156L29.2732 41.1155L29.2715 41.0156ZM29.8008 40.7882L29.7295 40.7181L29.7295 40.7181L29.8008 40.7882ZM30.019 40.255L30.119 40.255L30.019 40.255ZM29.8008 39.7218L29.8721 39.6517L29.8008 39.7218ZM29.2715 39.4944L29.2732 39.3944L29.2715 39.3944L29.2715 39.4944ZM12.1739 39.4944L12.1031 39.4237L11.9324 39.5944L12.1739 39.5944L12.1739 39.4944ZM16.0807 35.2724L16.1807 35.2724L16.1807 35.2724H16.0807ZM15.6111 34.5696L15.6494 34.4772L15.6111 34.5696ZM15.32 34.5117L15.32 34.4117L15.32 34.4117L15.32 34.5117ZM15.0289 34.5696L14.9906 34.4772L15.0289 34.5696ZM14.7821 34.7345L14.8528 34.8052L14.7821 34.7345ZM9.87 40.7222C9.77763 40.6298 9.71473 40.512 9.68926 40.3839L9.4931 40.4229C9.52628 40.5898 9.60822 40.7432 9.72854 40.8636L9.87 40.7222ZM9.87842 40.7304C9.87557 40.7277 9.87275 40.7249 9.86998 40.7222L9.72856 40.8636C9.73222 40.8672 9.7359 40.8708 9.73958 40.8744L9.87842 40.7304ZM14.8528 45.7048L9.87971 40.7317L9.73829 40.8731L14.7114 45.8463L14.8528 45.7048ZM15.32 45.8984C15.1448 45.8984 14.9767 45.8287 14.8528 45.7048L14.7114 45.8463C14.8728 46.0077 15.0918 46.0984 15.32 46.0984L15.32 45.8984ZM15.7872 45.7048C15.6633 45.8287 15.4953 45.8984 15.32 45.8984L15.32 46.0984C15.5483 46.0984 15.7672 46.0077 15.9286 45.8463L15.7872 45.7048ZM15.9807 45.2376C15.9807 45.4129 15.9111 45.5809 15.7872 45.7048L15.9286 45.8463C16.0901 45.6848 16.1807 45.4659 16.1807 45.2376L15.9807 45.2376ZM15.7872 44.7704C15.9111 44.8944 15.9807 45.0624 15.9807 45.2376L16.1807 45.2376C16.1807 45.0094 16.0901 44.7904 15.9286 44.629L15.7872 44.7704ZM12.1031 41.0863L15.7872 44.7704L15.9286 44.629L12.2445 40.9449L12.1031 41.0863ZM29.2715 40.9156L12.1738 40.9156L12.1738 41.1156L29.2715 41.1156V40.9156ZM29.7295 40.7181C29.6081 40.8416 29.443 40.9126 29.2697 40.9156L29.2732 41.1155C29.4989 41.1116 29.7139 41.0192 29.8721 40.8583L29.7295 40.7181ZM29.919 40.255C29.919 40.4282 29.8509 40.5945 29.7295 40.7181L29.8721 40.8583C30.0303 40.6973 30.119 40.4807 30.119 40.255L29.919 40.255ZM29.7295 39.7918C29.8509 39.9154 29.919 40.0817 29.919 40.255L30.119 40.255C30.119 40.0293 30.0303 39.8126 29.8721 39.6517L29.7295 39.7918ZM29.2697 39.5944C29.443 39.5974 29.6081 39.6683 29.7295 39.7918L29.8721 39.6517C29.7139 39.4907 29.4989 39.3983 29.2732 39.3944L29.2697 39.5944ZM12.1739 39.5944L29.2715 39.5944L29.2715 39.3944L12.1739 39.3944L12.1739 39.5944ZM15.7872 35.7396L12.1031 39.4237L12.2446 39.5651L15.9286 35.881L15.7872 35.7396ZM15.9304 35.5252C15.8972 35.6054 15.8486 35.6782 15.7872 35.7396L15.9286 35.881C16.0086 35.8011 16.072 35.7062 16.1152 35.6018L15.9304 35.5252ZM15.9807 35.2724C15.9807 35.3592 15.9637 35.4451 15.9304 35.5252L16.1152 35.6018C16.1585 35.4973 16.1807 35.3854 16.1807 35.2724L15.9807 35.2724ZM15.9304 35.0195C15.9637 35.0997 15.9807 35.1856 15.9807 35.2724H16.1807C16.1807 35.1594 16.1585 35.0474 16.1152 34.943L15.9304 35.0195ZM15.7872 34.8052C15.8486 34.8665 15.8972 34.9394 15.9304 35.0195L16.1152 34.943C16.072 34.8386 16.0086 34.7437 15.9286 34.6638L15.7872 34.8052ZM15.5729 34.662C15.653 34.6952 15.7259 34.7438 15.7872 34.8052L15.9286 34.6638C15.8487 34.5838 15.7538 34.5204 15.6494 34.4772L15.5729 34.662ZM15.32 34.6117C15.4068 34.6117 15.4927 34.6288 15.5729 34.662L15.6494 34.4772C15.545 34.4339 15.4331 34.4117 15.32 34.4117L15.32 34.6117ZM15.0672 34.662C15.1473 34.6288 15.2333 34.6117 15.32 34.6117L15.32 34.4117C15.207 34.4117 15.0951 34.4339 14.9906 34.4772L15.0672 34.662ZM14.8528 34.8052C14.9142 34.7438 14.987 34.6952 15.0672 34.662L14.9906 34.4772C14.8862 34.5204 14.7913 34.5838 14.7114 34.6638L14.8528 34.8052ZM9.87487 39.7832L14.8528 34.8052L14.7114 34.6638L9.73345 39.6417L9.87487 39.7832Z" fill="#CB8734" mask="url(#path-6-outside-2_162_2884)"/>
</svg>

<svg width="55" height="55" fill="none" xmlns="http://www.w3.org/2000/svg"><path d="M52.916 32.212a.81.81 0 0 0 1.384-.574V29.38a.811.811 0 0 0-1.621 0v2.26a.81.81 0 0 0 .237.573z" fill="#CB8734" stroke="#CB8734" stroke-width=".1"/><path d="M4.043 54.175h47.164a3.093 3.093 0 0 0 3.093-3.093V36.963a.81.81 0 0 0-1.621 0v14.12a1.472 1.472 0 0 1-1.472 1.47H4.043a1.472 1.472 0 0 1-1.472-1.47V3.917a1.471 1.471 0 0 1 1.472-1.472h47.164a1.471 1.471 0 0 1 1.472 1.472v12.597a.81.81 0 1 0 1.621 0V3.918A3.093 3.093 0 0 0 51.207.825H4.043A3.093 3.093 0 0 0 .95 3.918v47.164a3.093 3.093 0 0 0 3.093 3.093z" fill="#CB8734" stroke="#CB8734" stroke-width=".1"/><path d="M52.916 24.627a.81.81 0 0 0 1.384-.573V21.84a.81.81 0 1 0-1.621 0v2.214a.81.81 0 0 0 .237.573z" fill="#CB8734" stroke="#CB8734" stroke-width=".1"/><mask id="a" maskUnits="userSpaceOnUse" x="28.429" y="8.272" width="24.042" height="24.042" fill="#000"><path fill="#fff" d="M28.429 8.272h24.042v24.042H28.429z"/><path fill-rule="evenodd" clip-rule="evenodd" d="M45.369 16.569a.76.76 0 0 0 .538-1.299l-4.983-4.982a.76.76 0 0 0-1.076 0l-4.982 4.982a.76.76 0 0 0 1.075 1.076l3.685-3.684V29.76a.76.76 0 0 0 1.521 0V12.662l3.684 3.684a.76.76 0 0 0 .538.223z"/></mask><path fill-rule="evenodd" clip-rule="evenodd" d="M45.369 16.569a.76.76 0 0 0 .538-1.299l-4.983-4.982a.76.76 0 0 0-1.076 0l-4.982 4.982a.76.76 0 0 0 1.075 1.076l3.685-3.684V29.76a.76.76 0 0 0 1.521 0V12.662l3.684 3.684a.76.76 0 0 0 .538.223z" fill="#CB8734"/><path d="M40.386 10.065v-.1.1zm-5.743 5.743h-.1.1zm.76.76v-.1.1zm4.223-3.906h.1v-.242l-.17.171.07.07zm0 17.098h-.1.1zm.128.423-.083.055.083-.055zm.341.28-.038.092.038-.092zm.44.043.02.098-.02-.098zm.39-.208.07.07-.07-.07zm.222-.538h-.1.1zm0-17.098.07-.07-.17-.171v.241h.1zm4.689 3.613a.66.66 0 0 1-.467.194v.2a.86.86 0 0 0 .608-.252l-.141-.142zm.194-.467a.66.66 0 0 1-.194.467l.141.142a.86.86 0 0 0 .253-.609h-.2zm-.194-.467a.66.66 0 0 1 .194.467h.2a.86.86 0 0 0-.253-.608l-.141.141zm-4.983-4.983 4.983 4.983.141-.141-4.982-4.983-.142.141zm-.467-.193a.66.66 0 0 1 .467.193l.142-.141a.86.86 0 0 0-.609-.252v.2zm-.467.193a.66.66 0 0 1 .467-.193v-.2a.86.86 0 0 0-.608.252l.141.141zm-4.983 4.983 4.983-4.983-.141-.141-4.983 4.983.141.141zm-.193.467a.66.66 0 0 1 .193-.467l-.141-.141a.86.86 0 0 0-.252.608h.2zm.193.467a.66.66 0 0 1-.193-.467h-.2c0 .229.09.447.252.609l.141-.142zm.468.194a.66.66 0 0 1-.468-.194l-.141.142c.161.161.38.252.609.252v-.2zm.467-.194a.66.66 0 0 1-.467.194v.2a.86.86 0 0 0 .608-.252l-.141-.142zm3.684-3.684-3.684 3.684.141.142 3.684-3.685-.14-.14zm.17 17.17v-17.1h-.2v17.1h.2zm.112.366a.66.66 0 0 1-.111-.367h-.2c0 .17.05.337.145.478l.166-.11zm.297.244a.66.66 0 0 1-.297-.244l-.166.111a.862.862 0 0 0 .386.317l.077-.184zm.381.037a.66.66 0 0 1-.381-.037l-.077.184a.86.86 0 0 0 .497.05l-.039-.197zm.339-.18a.661.661 0 0 1-.339.18l.04.196a.861.861 0 0 0 .44-.235l-.141-.142zm.193-.468a.66.66 0 0 1-.193.467l.141.142a.86.86 0 0 0 .252-.609h-.2zm0-17.098V29.76h.2V12.662h-.2zm3.855 3.613-3.684-3.683-.142.14 3.684 3.685.142-.142zm.467.194a.66.66 0 0 1-.467-.194l-.142.142a.86.86 0 0 0 .609.252v-.2z" fill="#CB8734" mask="url(#a)"/><mask id="b" maskUnits="userSpaceOnUse" x="7.777" y="28.305" width="24.042" height="24.042" fill="#000"><path fill="#fff" d="M7.777 28.305h24.042v24.042H7.777z"/><path fill-rule="evenodd" clip-rule="evenodd" d="M9.591 40.403a.761.761 0 0 0 .218.4l4.973 4.973a.76.76 0 1 0 1.076-1.076l-3.684-3.684h17.098a.761.761 0 0 0 0-1.522H12.174l3.684-3.684a.759.759 0 0 0-.247-1.24.761.761 0 0 0-.829.164l-4.978 4.978"/></mask><path fill-rule="evenodd" clip-rule="evenodd" d="M9.591 40.403a.761.761 0 0 0 .218.4l4.973 4.973a.76.76 0 1 0 1.076-1.076l-3.684-3.684h17.098a.761.761 0 0 0 0-1.522H12.174l3.684-3.684a.759.759 0 0 0-.247-1.24.761.761 0 0 0-.829.164l-4.978 4.978" fill="#CB8734"/><path d="m9.756 39.698-.213.69.096.03.213-.69-.096-.03zm.043 1.095-.07.07.07-.07zm.01.01.07-.071v-.002l-.07.072zm4.973 4.973.07-.071-.07.07zm-2.608-4.76v-.1h-.242l.171.17.07-.07zm17.098 0v.1h.001l-.002-.1zm.529-.228-.071-.07.07.07zm.218-.533h.1-.1zm-.218-.533.071-.07-.071.07zm-.53-.228.002-.1h-.002v.1zm-17.097 0-.07-.07-.172.17h.242v-.1zm3.907-4.222h.1-.1zm-.47-.702.038-.093-.038.093zm-.291-.058v-.1.1zm-.291.058-.038-.093.038.093zm-.247.164.07.071-.07-.07zM9.87 40.722a.66.66 0 0 1-.18-.338l-.197.039c.033.167.115.32.236.44l.141-.14zm.008.008-.008-.008-.141.142.01.01.14-.144zm4.975 4.975L9.88 40.732l-.142.141 4.973 4.973.142-.141zm.467.193a.66.66 0 0 1-.467-.193l-.142.141a.86.86 0 0 0 .609.252v-.2zm.467-.193a.66.66 0 0 1-.467.193v.2a.86.86 0 0 0 .609-.252l-.142-.141zm.194-.467a.66.66 0 0 1-.194.467l.142.141a.86.86 0 0 0 .252-.608h-.2zm-.194-.468a.661.661 0 0 1 .194.468h.2a.86.86 0 0 0-.252-.609l-.142.141zm-3.684-3.684 3.684 3.684.142-.141-3.684-3.684-.142.141zm17.168-.17H12.174v.2h17.098v-.2zm.459-.198a.66.66 0 0 1-.46.198l.003.2a.86.86 0 0 0 .6-.258l-.143-.14zm.189-.463c0 .173-.068.34-.19.463l.143.14a.86.86 0 0 0 .247-.603h-.2zm-.19-.463c.122.123.19.29.19.463h.2a.86.86 0 0 0-.247-.603l-.142.14zm-.46-.198a.66.66 0 0 1 .46.198l.143-.14a.86.86 0 0 0-.599-.258l-.003.2zm-17.095 0h17.098v-.2H12.174v.2zm3.613-3.854-3.684 3.684.142.141 3.684-3.684-.142-.141zm.143-.215a.66.66 0 0 1-.143.215l.142.141a.859.859 0 0 0 .186-.28l-.185-.076zm.05-.253a.658.658 0 0 1-.05.253l.185.077a.86.86 0 0 0 .066-.33h-.2zm-.05-.252a.66.66 0 0 1 .05.252h.2a.86.86 0 0 0-.065-.329l-.185.077zm-.143-.215a.66.66 0 0 1 .143.215l.185-.077a.859.859 0 0 0-.186-.28l-.142.142zm-.214-.143a.66.66 0 0 1 .214.143l.142-.141a.859.859 0 0 0-.28-.187l-.076.185zm-.253-.05c.087 0 .173.017.253.05l.076-.185a.86.86 0 0 0-.329-.065v.2zm-.253.05a.66.66 0 0 1 .253-.05v-.2a.86.86 0 0 0-.33.065l.077.185zm-.214.143a.66.66 0 0 1 .214-.143l-.076-.185a.859.859 0 0 0-.28.187l.142.141zm-4.978 4.978 4.978-4.978-.142-.141-4.978 4.978.142.141z" fill="#CB8734" mask="url(#b)"/></svg>
